src/telerik-icons/solid/track-changes-enable.svg

<?xml version="1.0" encoding="utf-8"?>
<svg xmlns="http://www.w3.org/2000/svg" width="512" height="512" viewBox="0 0 512 512">
  <path d="M502.7 173.3 480 195.8 412.2 128l22.6-22.6c12.4-12.4 32.8-12.4 45.3 0l22.6 22.6c12.4 12.4 12.4 32.8 0 45.3zm-110.2-25.7 67.9 67.9-141.6 141.6-28.1 26.9H224v-66.7l26.9-28.1 141.6-141.6zm22.6 67.9-22.6-22.6-135.8 135.8L268 340l11.3 11.3 135.8-135.8zM160 320h32v-32h-32v32zm0-64h96v-32h-96v32zm128-96H160v32h128v-32zM160 384h32v-32h-32v32zm256 64H96V64h224v96l80.11-79.89L352 32H96c-17.7 0-32 14.3-32 32v384c0 17.7 14.3 32 32 32h320c17.7 0 32-14.3 32-32V273.155l-32 32V448z"/>
</svg>

<?xml version="1.0" encoding="utf-8"?>
<!-- Generator: Adobe Illustrator 19.2.1, SVG Export Plug-In . SVG Version: 6.00 Build 0)  -->
<svg xmlns="http://www.w3.org/2000/svg" width="512" height="512" viewBox="0 0 512 512">
<path d="M502.7,173.3L480,195.8L412.2,128l22.6-22.6c12.4-12.4,32.8-12.4,45.3,0l22.6,22.6C515.1,140.4,515.1,160.8,502.7,173.3z
	 M392.5,147.6l67.9,67.9L318.8,357.1L290.7,384H224v-66.7l26.9-28.1L392.5,147.6z M415.1,215.5l-22.6-22.6L256.7,328.7L268,340
	l11.3,11.3L415.1,215.5z M160,320h32v-15.548V288h-32V320z M160,256h96v-32h-96V256z M288,160H160v32h128V160z M160,384h32v-32h-32
	V384z M416,448H96V64h224v96l80.11-79.89L352,32H96c-17.7,0-32,14.3-32,32v384c0,17.7,14.3,32,32,32h320c17.7,0,32-14.3,32-32
	V273.155l-32,32V448z" />
</svg>
